images/features/1.svg

<svg width="70" height="70" viewBox="0 0 70 70" fill="none" xmlns="http://www.w3.org/2000/svg">
<mask id="mask0_9_179" style="mask-type:luminance" maskUnits="userSpaceOnUse" x="1" y="13" width="69" height="45">
<path d="M1 13H70V57.8487H1V13Z" fill="white"/>
</mask>
<g mask="url(#mask0_9_179)">
<path d="M20.8629 36.0831C17.4705 36.0831 14.7061 38.4906 14.7061 41.448C14.7061 44.4061 17.4655 46.8145 20.8629 46.8145C24.2604 46.8145 27.0197 44.4078 27.0197 41.448C27.0197 38.4881 24.2587 36.0831 20.8629 36.0831ZM20.8629 36.9716C23.4967 36.9716 25.6837 38.6245 26.0664 40.7766C25.8726 43.0918 23.6132 44.9252 20.8629 44.9252C18.1136 44.9252 15.8467 43.0918 15.6595 40.7766C16.0496 38.6245 18.2292 36.9716 20.8629 36.9716ZM20.8629 45.9268C18.4438 45.9268 16.4007 44.5284 15.7893 42.6342C16.7152 44.2531 18.6418 45.367 20.8629 45.367C23.0841 45.367 25.0107 44.2506 25.9366 42.6342C25.3252 44.5284 23.2821 45.9268 20.8629 45.9268ZM49.5414 36.0831C46.149 36.0831 43.3854 38.4906 43.3854 41.448C43.3854 44.4061 46.144 46.8145 49.5414 46.8145C52.9397 46.8145 55.6982 44.4078 55.6982 41.448C55.6982 38.4881 52.9322 36.0831 49.5414 36.0831ZM49.5414 36.9716C52.1751 36.9716 54.3622 38.6245 54.7448 40.7766C54.551 43.0918 52.2916 44.9252 49.5414 44.9252C46.792 44.9252 44.5251 43.0918 44.3379 40.7766C44.7214 38.6245 46.9076 36.9716 49.5414 36.9716ZM49.5414 45.9268C47.1223 45.9268 45.0792 44.5284 44.4686 42.6342C45.3936 44.2531 47.3211 45.367 49.5414 45.367C51.7625 45.367 53.6875 44.2506 54.6151 42.6342C54.002 44.5284 51.9614 45.9268 49.5414 45.9268ZM69.9883 16.5313C69.9883 16.513 69.9883 16.4947 69.9883 16.4764V16.2942C69.9925 16.1985 69.9675 16.1112 69.9135 16.033C69.3411 13.1405 66.8488 13.3277 66.8213 13.3302C66.759 13.3352 66.7024 13.3551 66.6508 13.3917C66.5992 13.4275 66.5601 13.4733 66.5343 13.5298L65.7815 15.1013C65.3764 14.7735 64.9296 14.5206 64.4397 14.3418C63.9505 14.1637 63.4455 14.0689 62.9248 14.0581H7.65341C7.23248 14.0697 6.82485 14.1504 6.43054 14.3018C6.03706 14.4532 5.68018 14.6662 5.3599 14.9399L4.54548 13.2387C4.51886 13.1821 4.47893 13.1355 4.42735 13.0998C4.37578 13.0632 4.31921 13.0424 4.25599 13.0357C4.22853 13.0357 1.60892 12.8377 1.12726 15.9689C1.03991 16.0596 0.997486 16.1686 0.999982 16.2942L1.88927 41.4638C1.89093 41.5087 1.89925 41.5519 1.91423 41.5935L6.64849 55.3188C6.6826 55.4153 6.7425 55.491 6.82818 55.5468C7.01036 55.9893 7.28073 56.3687 7.6401 56.6856C8.28731 57.2505 9.16329 57.535 10.2531 57.535C10.5176 57.5341 10.7813 57.5183 11.0442 57.4867C11.0891 57.4817 11.1315 57.4693 11.1715 57.4485C11.2114 57.4277 11.2455 57.4002 11.2754 57.3661C11.3046 57.332 11.327 57.2937 11.342 57.2513C11.3561 57.2089 11.3628 57.1648 11.3611 57.1199L11.2014 53.477H25.8293C25.9133 53.477 25.9907 53.4554 26.0622 53.4113C26.1338 53.3681 26.1887 53.3082 26.2261 53.2333L30.0478 45.5966H40.5029C40.5287 45.5991 40.5545 45.5991 40.5803 45.5966L44.4045 53.2383C44.4436 53.3123 44.4985 53.3714 44.57 53.4146C44.6416 53.4587 44.7198 53.4812 44.803 53.482H59.8867L59.7187 57.421C59.7162 57.4659 59.7229 57.5092 59.737 57.5516C59.752 57.5949 59.7736 57.6331 59.8027 57.6672C59.8318 57.7014 59.8668 57.7288 59.9067 57.7504C59.9458 57.7712 59.9882 57.7845 60.0331 57.7895C60.296 57.8186 60.5597 57.8345 60.8243 57.8353C61.914 57.8353 62.7925 57.5508 63.4372 56.9884C63.7409 56.7131 63.9846 56.3928 64.1685 56.0268C64.3515 55.6607 64.4621 55.2739 64.5004 54.8663L69.0608 41.6077C69.0758 41.5652 69.0841 41.522 69.0857 41.4779L69.9609 16.6794C69.9817 16.6319 69.9908 16.5829 69.9883 16.5313ZM7.67005 14.9374H62.9331C63.3881 14.9474 63.8266 15.0372 64.2483 15.2086C64.6693 15.3791 65.0469 15.6187 65.3805 15.9282L64.7508 17.2484H6.47296L5.75921 15.7684C6.01293 15.5147 6.30492 15.3167 6.63518 15.1745C6.96544 15.0322 7.31067 14.9565 7.67005 14.9465V14.9374ZM61.1279 24.8901L60.9956 27.9365H60.2037C60.2095 25.3751 60.0573 22.8237 59.7478 20.2814C59.7412 20.234 59.7204 20.1933 59.6879 20.1583C59.6546 20.1242 59.6147 20.1017 59.5681 20.0926C47.2845 17.9638 38.3617 20.0768 38.2793 20.0926C38.1961 20.1142 38.1421 20.1666 38.1179 20.2498C37.9441 20.9752 37.8251 21.7098 37.7594 22.4535H33.3928C33.2788 21.1083 33.1649 20.2856 33.1649 20.2764C33.1574 20.229 33.1374 20.1883 33.1041 20.1533C33.07 20.1184 33.0301 20.0968 32.9827 20.0876C20.7016 17.9588 11.7762 20.0693 11.6939 20.0876C11.6107 20.1092 11.5566 20.1616 11.5325 20.2448C11.505 20.3455 10.8687 22.7155 10.976 27.9273H10.0933L9.95025 24.5898C9.94775 24.5415 9.93611 24.4958 9.91531 24.4525L6.80738 17.9655H64.4114L61.162 24.7537C61.1421 24.7969 61.1312 24.8427 61.1279 24.8901ZM48.064 22.6565C48.0224 22.5949 47.9691 22.5475 47.9034 22.5126C47.8385 22.4776 47.7686 22.4593 47.6946 22.4585H38.1978C38.2627 21.7996 38.3658 21.1466 38.5056 20.5002C39.6453 20.2498 48.0232 18.5736 59.3194 20.5002C59.6097 22.9693 59.757 25.4474 59.7595 27.934H46.9534V25.8052L48.0939 23.0732C48.1555 22.9293 48.1455 22.7904 48.064 22.6565ZM22.525 23.0749L23.6656 25.8077V27.9389H11.421C11.327 23.4534 11.8012 21.0576 11.9293 20.5019C13.069 20.2515 21.4469 18.5761 32.7456 20.5019C32.7822 20.798 32.8637 21.4885 32.9461 22.4585H22.9385C22.9019 22.4593 22.8661 22.4651 22.8312 22.4743C22.7962 22.4843 22.763 22.4984 22.7314 22.5159C22.6997 22.5333 22.6706 22.5541 22.644 22.5791C22.6174 22.6041 22.5941 22.6315 22.5741 22.6615C22.5542 22.6914 22.5375 22.7238 22.525 22.758C22.5126 22.7912 22.5051 22.827 22.5009 22.8628C22.4968 22.8985 22.4968 22.9343 22.5018 22.9709C22.5059 23.0067 22.5151 23.0416 22.5275 23.0749H22.525ZM3.99644 13.7395L4.85578 15.5405C4.8408 15.6179 4.84579 15.6936 4.86992 15.7676C4.89487 15.8425 4.93564 15.9065 4.99304 15.9598C5.02049 15.9839 5.05127 16.0039 5.08371 16.0213L5.91394 17.7558L9.24315 24.7029L9.38207 27.9365H6.92884C6.86894 27.9381 6.81237 27.9506 6.75747 27.9747C6.7034 27.998 6.65515 28.0313 6.61355 28.0737C6.57196 28.1161 6.54035 28.1652 6.51789 28.2201C6.49542 28.275 6.48378 28.3324 6.48378 28.3915V34.0159C6.48794 34.1157 6.52038 34.2047 6.58277 34.2829C6.64516 34.3611 6.72503 34.4135 6.82152 34.4393C7.80315 34.7172 8.73819 35.1073 9.62581 35.6098L10.0642 45.6739C9.1924 46.0566 8.27982 46.2388 7.32731 46.2205C7.2017 46.2155 7.09189 46.2554 6.99955 46.3411C6.98457 46.3544 6.97126 46.3702 6.96045 46.3869L6.09861 25.3318C6.09612 25.2827 6.0853 25.237 6.06451 25.1929L1.89343 16.3965V16.2651C1.89176 16.1952 1.87346 16.1295 1.83936 16.0688C2.15381 14.0514 3.49231 13.7761 3.9981 13.7461L3.99644 13.7395ZM10.9302 45.1615L10.5409 36.1746C12.4967 37.5747 13.3518 39.3075 13.0831 41.3298C12.8228 43.3039 11.9451 44.4744 10.9327 45.1773L10.9302 45.1615ZM1.95748 18.1909L5.39151 25.4316L6.47296 52.0953L2.77606 41.3656L1.95748 18.1909ZM10.6366 56.8087C9.54595 56.877 8.69826 56.6582 8.12842 56.1549C7.85473 55.9161 7.64759 55.6291 7.50783 55.2939C7.53445 55.2065 7.53445 55.1183 7.50783 55.0302L7.30235 54.4354L7.26409 53.4637H10.5109L10.6366 56.8087ZM30.4929 44.7015L30.8206 44.0459C30.8348 44.021 30.8456 43.9944 30.8531 43.9661L30.8639 43.9253H39.7576L39.7825 43.9894C39.7884 44.0085 39.7958 44.0276 39.805 44.0459L40.1336 44.7015H30.4929ZM31.2881 43.0377C31.4753 42.7232 31.7008 42.4396 31.9636 42.185C32.2273 41.9313 32.5185 41.7167 32.8396 41.5403C33.1607 41.3648 33.4985 41.2333 33.8545 41.1485C34.2106 41.0628 34.5708 41.0254 34.9368 41.0362C36.5057 40.9971 37.7918 41.4729 38.7585 42.4587C38.934 42.6392 39.0954 42.8322 39.2418 43.0377H31.2881ZM40.6169 43.6699C40.4705 43.2881 39.112 40.0404 34.9393 40.1477C31.8854 40.1477 30.5927 42.3106 30.1684 43.2739C30.1576 43.2956 30.1476 43.3172 30.1393 43.3405C30.0728 43.4994 30.0295 43.6175 30.0112 43.6816L25.5539 52.5803H7.74492V47.0948C8.75816 47.0391 9.72231 46.7945 10.6382 46.3594C10.6998 46.3453 10.7555 46.3186 10.8046 46.2795C12.228 45.535 13.6189 44.1283 13.9749 41.4638C14.4008 38.276 12.3486 36.227 10.3695 35.025C10.3246 34.9825 10.273 34.9509 10.2148 34.931C9.31802 34.4077 8.37466 33.9876 7.38471 33.6723V28.8249H24.1356C24.1955 28.8249 24.2537 28.8133 24.3094 28.79C24.366 28.7667 24.4151 28.7342 24.4575 28.691C24.5008 28.6485 24.5332 28.5995 24.5565 28.5437C24.5798 28.488 24.5915 28.4298 24.5915 28.369V25.7161C24.5915 25.6562 24.5798 25.5988 24.5573 25.5431L23.6315 23.3461H47.0241L46.0982 25.5431C46.0758 25.5988 46.0641 25.6562 46.0641 25.7161V28.3807C46.0641 28.4406 46.0758 28.4988 46.099 28.5545C46.1223 28.6103 46.1548 28.6602 46.198 28.7026C46.2405 28.745 46.2896 28.7783 46.3461 28.8016C46.4019 28.8241 46.4601 28.8357 46.52 28.8357H61.0114C61.0397 28.8956 61.0813 28.943 61.1362 28.9788C61.1911 29.0146 61.251 29.0337 61.3168 29.0362C61.3883 29.0404 61.454 29.0246 61.5156 28.988C61.5763 28.9514 61.6221 28.9006 61.652 28.8357H63.2509V33.6723C62.404 33.9427 61.5896 34.2896 60.8085 34.713C60.7378 34.7305 60.6762 34.7637 60.6238 34.8128C58.5441 35.9874 56.2065 38.083 56.6582 41.4638C57.0434 44.3537 58.6464 45.7654 60.1879 46.4526C60.2428 46.4933 60.3035 46.5191 60.3709 46.5299C61.1753 46.8577 62.0114 47.0457 62.879 47.0948V52.5803H45.0767L40.6169 43.6699ZM57.55 41.3456C57.2671 39.2326 58.2113 37.4358 60.3568 36.0058L60.4574 35.94L60.0465 45.4052C58.9184 44.7381 57.8395 43.531 57.55 41.3456ZM62.9655 56.4444C62.3816 56.9493 61.538 57.1681 60.4458 57.0999L60.603 53.4562H63.3391C63.3981 53.4554 63.4539 53.4429 63.5079 53.4196C63.562 53.3972 63.6094 53.3647 63.651 53.3231C63.6918 53.2824 63.7242 53.235 63.7475 53.1809C63.77 53.1268 63.7825 53.0711 63.7841 53.0128V46.6373C63.7841 46.5765 63.7725 46.5175 63.7484 46.4617C63.7242 46.406 63.6901 46.3569 63.646 46.3145C63.6019 46.2729 63.5512 46.2413 63.4938 46.2205C63.4364 46.1989 63.3773 46.1897 63.3166 46.193C62.493 46.2138 61.6944 46.0816 60.9224 45.7946L61.3783 35.3843C62.157 34.9859 62.968 34.6706 63.8116 34.4393C63.9089 34.4127 63.9888 34.3594 64.0503 34.2796C64.1127 34.2006 64.1443 34.1099 64.1468 34.0092V28.3807C64.1468 28.3208 64.1352 28.2642 64.1127 28.2085C64.0903 28.1536 64.0587 28.1053 64.0171 28.0621C63.9755 28.0196 63.9272 27.9864 63.8731 27.9631C63.8182 27.9389 63.7617 27.9265 63.7018 27.9248H61.7094L61.8367 24.9808L67.0809 14.024C67.5601 14.0473 68.7754 14.286 69.1814 16.0122C69.1307 16.0846 69.1032 16.1653 69.0991 16.2534L69.0766 16.909L65.0128 25.484C64.9929 25.5273 64.9812 25.5731 64.9787 25.6205L63.8207 54.0826L63.4971 55.0185C63.4697 55.1025 63.4672 55.1866 63.4888 55.2714C63.5104 55.3571 63.5537 55.4295 63.6178 55.4902C63.4788 55.862 63.2609 56.1798 62.9631 56.4444H62.9655ZM64.6185 51.7442L65.6792 25.7145L69.0009 18.7058L68.2006 41.3573L64.6185 51.7442Z" fill="url(#paint0_linear_9_179)"/>
</g>
<defs>
<linearGradient id="paint0_linear_9_179" x1="0.999878" y1="35.4342" x2="69.9888" y2="35.4342" gradientUnits="userSpaceOnUse">
<stop stop-color="#0CBAF1"/>
<stop offset="1" stop-color="#E95CE9"/>
</linearGradient>
</defs>
</svg>

<svg xmlns="http://www.w3.org/2000/svg" width="70" height="70" fill="none" viewBox="0 0 70 70"><mask id="a" width="69" height="45" x="1" y="13" maskUnits="userSpaceOnUse" style="mask-type:luminance"><path fill="#fff" d="M1 13h69v44.849H1z"/></mask><g mask="url(#a)"><path fill="url(#b)" d="M20.863 36.083c-3.392 0-6.157 2.408-6.157 5.365s2.76 5.367 6.157 5.367 6.157-2.407 6.157-5.367-2.761-5.365-6.157-5.365m0 .889c2.634 0 4.82 1.652 5.203 3.805-.193 2.315-2.453 4.148-5.203 4.148s-5.016-1.833-5.203-4.148c.39-2.153 2.57-3.805 5.203-3.805m0 8.955c-2.42 0-4.462-1.399-5.074-3.293.926 1.62 2.853 2.733 5.074 2.733s4.148-1.116 5.074-2.733c-.612 1.894-2.655 3.293-5.074 3.293m28.678-9.844c-3.392 0-6.156 2.408-6.156 5.365s2.759 5.367 6.156 5.367c3.399 0 6.157-2.407 6.157-5.367s-2.766-5.365-6.157-5.365m0 .889c2.634 0 4.821 1.652 5.204 3.805-.194 2.315-2.453 4.148-5.204 4.148-2.749 0-5.016-1.833-5.203-4.148.383-2.153 2.57-3.805 5.203-3.805m0 8.955c-2.419 0-4.462-1.399-5.072-3.293.925 1.62 2.852 2.733 5.072 2.733 2.222 0 4.147-1.116 5.074-2.733-.613 1.894-2.654 3.293-5.074 3.293M69.988 16.53v-.237a.4.4 0 0 0-.075-.261c-.572-2.893-3.064-2.705-3.092-2.703a.34.34 0 0 0-.17.062.34.34 0 0 0-.117.138l-.753 1.571a4.683 4.683 0 0 0-2.857-1.043H7.655a3.67 3.67 0 0 0-2.294.882l-.815-1.701a.35.35 0 0 0-.118-.14.35.35 0 0 0-.171-.063c-.027 0-2.647-.198-3.129 2.933a.44.44 0 0 0-.127.325l.89 25.17q.002.067.024.13l4.734 13.725a.44.44 0 0 0 .18.228q.273.663.812 1.139c.647.565 1.523.849 2.613.849q.397 0 .791-.048a.36.36 0 0 0 .231-.12.36.36 0 0 0 .086-.247l-.16-3.643H25.83a.43.43 0 0 0 .233-.066.43.43 0 0 0 .164-.178l3.822-7.636h10.455a.4.4 0 0 0 .077 0l3.825 7.641q.058.111.165.177t.233.067h15.084l-.168 3.939a.35.35 0 0 0 .084.246.36.36 0 0 0 .23.122q.395.045.791.046c1.09 0 1.968-.284 2.613-.847a3.27 3.27 0 0 0 1.063-2.122l4.56-13.258a.4.4 0 0 0 .026-.13l.875-24.799a.3.3 0 0 0 .027-.148M7.67 14.937h55.263q.683.014 1.315.272.632.255 1.132.72l-.63 1.32H6.474l-.714-1.48q.381-.381.876-.594.496-.214 1.035-.229zm53.458 9.953-.132 3.046h-.792a62 62 0 0 0-.456-7.655.22.22 0 0 0-.18-.188c-12.283-2.13-21.206-.016-21.289 0a.21.21 0 0 0-.161.157q-.26 1.088-.359 2.203h-4.366c-.114-1.345-.228-2.167-.228-2.177a.225.225 0 0 0-.182-.188c-12.281-2.13-21.207-.019-21.29 0a.21.21 0 0 0-.16.157c-.028.1-.664 2.47-.557 7.682h-.883L9.95 24.59a.4.4 0 0 0-.035-.137l-3.108-6.488h57.604l-3.249 6.789a.4.4 0 0 0-.034.136m-13.064-2.233a.44.44 0 0 0-.16-.144.45.45 0 0 0-.21-.055h-9.496q.098-.987.308-1.958c1.14-.25 9.517-1.926 20.813 0q.436 3.704.44 7.434H46.954v-2.129l1.14-2.732a.43.43 0 0 0-.029-.416m-25.539.418 1.14 2.733v2.13H11.422c-.094-4.485.38-6.88.508-7.436 1.14-.25 9.518-1.926 20.817 0 .036.296.118.986.2 1.957H22.94a.46.46 0 0 0-.295.12.5.5 0 0 0-.119.179.45.45 0 0 0 .003.317zM3.996 13.74l.86 1.8a.45.45 0 0 0 .228.481l.83 1.735 3.33 6.947.138 3.233H6.93a.45.45 0 0 0-.315.138.45.45 0 0 0-.13.317v5.625q.005.15.099.267.093.117.239.156 1.472.417 2.804 1.17l.438 10.065a6.4 6.4 0 0 1-2.737.547.44.44 0 0 0-.367.166L6.1 25.332a.4.4 0 0 0-.034-.14l-4.172-8.795v-.132a.4.4 0 0 0-.054-.196c.315-2.018 1.653-2.293 2.16-2.323zM10.93 45.16l-.39-8.986c1.957 1.4 2.812 3.133 2.543 5.155-.26 1.974-1.138 3.144-2.15 3.847zm-8.973-26.97 3.435 7.24 1.081 26.664-3.697-10.73zm8.68 38.618c-1.091.068-1.939-.15-2.509-.654a2.3 2.3 0 0 1-.62-.861.45.45 0 0 0 0-.264l-.206-.595-.038-.971h3.247zm19.856-12.107.328-.656a.3.3 0 0 0 .032-.08l.01-.04h8.895l.024.063q.01.03.023.057l.329.656zm.795-1.664a4.1 4.1 0 0 1 2.567-1.89 4 4 0 0 1 1.082-.112c1.569-.039 2.855.437 3.822 1.423q.263.27.483.579zm9.329.632c-.146-.382-1.505-3.63-5.678-3.522-3.054 0-4.346 2.163-4.77 3.126a3.577 3.577 0 0 0-.157.408l-4.458 8.898H7.744v-5.485a7.7 7.7 0 0 0 2.894-.736.4.4 0 0 0 .167-.08c1.423-.744 2.814-2.15 3.17-4.815.426-3.188-1.626-5.237-3.605-6.439a.4.4 0 0 0-.155-.094 14 14 0 0 0-2.83-1.259v-4.847h16.75a.45.45 0 0 0 .322-.134.44.44 0 0 0 .134-.322v-2.653a.5.5 0 0 0-.034-.173l-.925-2.197h23.392l-.926 2.197a.5.5 0 0 0-.034.173v2.665a.45.45 0 0 0 .134.322.45.45 0 0 0 .322.133h14.491q.043.09.125.143a.35.35 0 0 0 .18.057.34.34 0 0 0 .336-.2h1.599v4.836q-1.27.406-2.442 1.041a.4.4 0 0 0-.185.1c-2.08 1.174-4.418 3.27-3.966 6.65.385 2.89 1.988 4.302 3.53 4.99q.082.06.183.077 1.206.492 2.508.565v5.485H45.077zm16.933-2.324c-.283-2.113.661-3.91 2.807-5.34l.1-.066-.41 9.465c-1.129-.667-2.207-1.874-2.497-4.06m5.416 15.098c-.584.505-1.428.724-2.52.656l.157-3.644h2.736a.4.4 0 0 0 .169-.036.451.451 0 0 0 .276-.407v-6.376a.44.44 0 0 0-.29-.416.4.4 0 0 0-.177-.028 6.4 6.4 0 0 1-2.395-.398l.456-10.41q1.168-.599 2.434-.946a.44.44 0 0 0 .238-.16.44.44 0 0 0 .097-.27v-5.628a.45.45 0 0 0-.274-.418.5.5 0 0 0-.171-.038h-1.993l.128-2.944 5.244-10.957c.48.023 1.694.262 2.1 1.988a.45.45 0 0 0-.082.241l-.022.656-4.064 8.575a.4.4 0 0 0-.034.136L63.82 54.084l-.324.936a.45.45 0 0 0-.008.252.45.45 0 0 0 .129.22q-.209.557-.655.953zm1.652-4.7 1.061-26.03 3.322-7.008-.8 22.651z"/></g><defs><linearGradient id="b" x1="1" x2="69.989" y1="35.434" y2="35.434" gradientUnits="userSpaceOnUse"><stop stop-color="#0cbaf1"/><stop offset="1" stop-color="#e95ce9"/></linearGradient></defs></svg>
